static/icons/copyright.svg

<svg xmlns="http://www.w3.org/2000/svg" width="24" height="24" viewBox="0 0 24 24">
  <path fill-rule="evenodd" d="M12,18.4230769 C13.1538519,18.4230769 14.2307642,18.1282081 15.2307692,17.5384615 C16.2051331,16.9743562 16.9743562,16.2051331 17.5384615,15.2307692 C18.1282081,14.2307642 18.4230769,13.1538519 18.4230769,12 C18.4230769,10.8461481 18.1282081,9.76923577 17.5384615,8.76923077 C16.9743562,7.79486692 16.2051331,7.02564385 15.2307692,6.46153846 C14.2307642,5.87179192 13.1538519,5.57692308 12,5.57692308 C10.8461481,5.57692308 9.76923577,5.87179192 8.76923077,6.46153846 C7.79486692,7.02564385 7.02564385,7.79486692 6.46153846,8.76923077 C5.87179192,9.76923577 5.57692308,10.8461481 5.57692308,12 C5.57692308,13.1538519 5.87179192,14.2307642 6.46153846,15.2307692 C7.02564385,16.2051331 7.79486692,16.9743562 8.76923077,17.5384615 C9.76923577,18.1282081 10.8461481,18.4230769 12,18.4230769 Z M12,4 C13.4615458,4 14.8140963,4.36538096 16.0576923,5.09615385 C17.2628265,5.788465 18.211535,6.73717346 18.9038462,7.94230769 C19.634619,9.18590365 20,10.5384542 20,12 C20,13.4615458 19.634619,14.8140963 18.9038462,16.0576923 C18.211535,17.2628265 17.2628265,18.211535 16.0576923,18.9038462 C14.8140963,19.634619 13.4615458,20 12,20 C10.5384542,20 9.18590365,19.634619 7.94230769,18.9038462 C6.73717346,18.1987144 5.788465,17.2435958 5.09615385,16.0384615 C4.36538096,14.7948656 4,13.4487252 4,12 C4,10.5512748 4.36538096,9.20513442 5.09615385,7.96153846 C5.80128558,6.75640423 6.75640423,5.80128558 7.96153846,5.09615385 C9.20513442,4.36538096 10.5512748,4 12,4 Z M12.974648,10.2778407 C12.9254061,10.1931369 12.876165,10.126165 12.8269231,10.0769231 C12.7115379,9.97435846 12.5705137,9.88782087 12.4038462,9.81730769 C12.2371787,9.74679452 12.0641035,9.71153846 11.8846154,9.71153846 C11.3461512,9.71153846 10.9551294,9.929485 10.7115385,10.3653846 C10.4935887,10.7371813 10.3846154,11.2435865 10.3846154,11.8846154 L10.3846154,12.1153846 C10.3846154,12.7564135 10.4935887,13.2628187 10.7115385,13.6346154 C10.9551294,14.070515 11.3461512,14.2884615 11.8846154,14.2884615 C12.2564121,14.2884615 12.5705115,14.1858985 12.8269231,13.9807692 C13.0833346,13.77564 13.2115385,13.5000017 13.2115385,13.1538462 L14.6346154,13.1538462 C14.6346154,13.7820544 14.3589771,14.333331 13.8076923,14.8076923 C13.5512808,15.0384627 13.2820527,15.2051277 13,15.3076923 C12.666665,15.4358981 12.2948738,15.5 11.8846154,15.5 C10.8846104,15.5 10.1153873,15.1859006 9.57692308,14.5576923 C9.0641,13.9679458 8.80769231,13.1538513 8.80769231,12.1153846 L8.80769231,11.8846154 C8.80769231,11.3974335 8.87179423,10.9455149 9,10.5288462 C9.12820577,10.1121774 9.31410135,9.76282192 9.55769231,9.48076923 C9.82692442,9.17307538 10.147434,8.93589827 10.5192308,8.76923077 C10.9423098,8.56410154 11.3974335,8.46153846 11.8846154,8.46153846 C12.2820533,8.46153846 12.6538444,8.52564038 13,8.65384615 C13.3461556,8.78205192 13.628204,8.95512712 13.8461538,9.17307692 C14.3717975,9.72436173 14.6346154,10.3397402 14.6346154,11.0192308 L13.2115385,11.0192308 C13.2115385,10.8525633 13.1730773,10.6923085 13.0961538,10.5384615 C13.0233729,10.3838021 12.9828711,10.2969287 12.974648,10.2778407 Z"/>
</svg>

<svg xmlns="http://www.w3.org/2000/svg" width="24" height="24">
    <path fill-rule="evenodd" d="M12 18.423c1.154 0 2.23-.295 3.23-.885a6.228 6.228 0 0 0 2.308-2.307c.59-1 .885-2.077.885-3.231s-.295-2.23-.885-3.23a6.228 6.228 0 0 0-2.307-2.308c-1-.59-2.077-.885-3.231-.885s-2.23.295-3.23.885a6.228 6.228 0 0 0-2.308 2.307c-.59 1-.885 2.077-.885 3.231s.295 2.23.885 3.23a6.228 6.228 0 0 0 2.307 2.308c1 .59 2.077.885 3.231.885zM12 4c1.462 0 2.814.365 4.058 1.096a7.582 7.582 0 0 1 2.846 2.846A7.868 7.868 0 0 1 20 12a7.868 7.868 0 0 1-1.096 4.058 7.582 7.582 0 0 1-2.846 2.846A7.868 7.868 0 0 1 12 20a7.868 7.868 0 0 1-4.058-1.096 7.726 7.726 0 0 1-2.846-2.866A7.833 7.833 0 0 1 4 12c0-1.449.365-2.795 1.096-4.038a7.873 7.873 0 0 1 2.866-2.866A7.833 7.833 0 0 1 12 4zm.975 6.278a.984.984 0 0 0-.148-.201 1.525 1.525 0 0 0-.423-.26 1.32 1.32 0 0 0-.52-.105c-.538 0-.929.217-1.172.653-.218.372-.327.879-.327 1.52v.23c0 .641.109 1.148.327 1.52.243.436.634.653 1.173.653.371 0 .686-.102.942-.307.256-.205.385-.481.385-.827h1.423c0 .628-.276 1.18-.827 1.654-.257.23-.526.397-.808.5a3.085 3.085 0 0 1-1.115.192c-1 0-1.77-.314-2.308-.942-.513-.59-.77-1.404-.77-2.443v-.23c0-.488.065-.94.193-1.356a2.86 2.86 0 0 1 .558-1.048c.269-.308.59-.545.961-.712a3.088 3.088 0 0 1 1.366-.307c.397 0 .769.064 1.115.192s.628.301.846.52c.526.55.789 1.166.789 1.845h-1.423c0-.166-.039-.327-.116-.48a19.042 19.042 0 0 1-.121-.261z"/>
</svg>
